X:1
T:Captain White
R:jig 48
M:6/8
L:1/8
Z:C.G.P
K:D
A|DFA d2f|edc BcB|ABA F2A|AGF E2A|
DFA d2f|edc B2d|!ABA FAA|ABc d2:|
|:f|e^de A2f|e^de a2f|efe dcB|A2B c2f|
e^de A2f|e^de a2f|efe dcB|1A2B c2:|2ABA F2G|| D2f fef|d2A A^GA|D2f fef|g2f ecA| D2f fef|d2A A^GA|Bed cBc|d3 dAF:||
